X:18
T:Itron Santez Anna
C:Guillou
M:6/8
W:     DISKAN.
W:Itron Santez Anna,
W:Mamm-goz ar Vretoned,
W:Grit ma vimp dreist pep tra
W:Gwir Gristenien bepred.
W:
W:1.'Vidomp eun enor kaer,
W:Eur joa dispar, ivez.
W:Anna deut d'hon c'hemer
W:Evit he bugale.
W:
W:2.'Vidomp he deus Anna
W:Ar garantez vrasa,
W:Hag evidomp e ra
W:He burzudou kaera.
W:
W:3.Anna 'vit ar re glanv
W:A zo eur gwir rekour;
W:O foaniou 'gavont skanv
W:Pa deurvez o sikour.
W:
W:4.Pet gwech he deus rentet,
W:O, madelez dispar!
W:D'an den dall, ar gweled,
W:Ar c'hleved d'ar bouzar.
W:
W:5.Pet gwech e-kreiz ar mor
W:'Deus roet a-greiz-holl
W:Avel vat ha goudor
W:D'an tud o vont da goll.
W:
W:6.Rak-se 'ta pa savo
W:Ar mor e houlennou
W:D'ezi m'o diwallo,
W:Gouestlit ho kalonou.
W:
W:7.Pa zeuio d'o samma
W:Poan gorf pe boan spered,
W:Pedit Santez Anna
W:Hag ho po ar yec'hed.
W:
W:8.Tud yaouank, ma vennit
W:Mont e servij Doue
W:Diganti goulennit
W:Terri d'eoc'h pep fouge.
W:
W:9.Pedit, c'houi, mammou kaer,
W:Evit ho pugale;
W:Warni kemerit skouer,
W:Hi 'zo bet mamm, ivez.
W:
W:10.Ar Gwerc'hezed ganti,
W:Sur, a vo selaouet;
W:Mamm ar Werc'hez Vari
W:A gar ar Gwerc'hezed.
W:
W:11.C'houi holl, tud a labour,
W:Dindan ar boan brevel,
W:Goulennit he sikour,
W:P'eo ganeoc'h ken troet.
W:
W:12.P'eo bet 'n em ziskouezet.
W:'Voe d'eul labourer paour,
W:Ha nann d'eun den gwisket
W:E seiz, perlez hag aour.
W:
W:13.Ha c'houi holl, tud a vor,
W:E-kreiz ar wall amzer,
W:Anna, da rei d'eoc'h gor
W:Ouz riskl, avel, reier.
W:
W:14.O, pegoulz ho kwelimp,
W:Evel pirc'hirinded
W:Ha pegoulz e pokimp
W:D'ho skeudenn vinniget
W:
W:15.Na chomit ket en hent,
W:C'houi erru war an oad;
W:'Vit mervel evel sent,
W:Pedit Anna ervat.
W:
W:16.Grit d'imp donja bepred,
W:D'hon bugale, ivez,
W:Evel gwir vretoned,
W:Da holl lezenn Doue.
W:
W:17.Itron Santez Anna,
W:Mil bennoz, trugarez!
W:Ni 'ray 'vit ar gwella
W:D'ho karout mui bemdez
%(Ar re a yelo da Santez-Anna Wened, a gano :)
%W:
%W:18.Betek Santez Anna,
%W:Eomp holl, Bretoned,
%W:Rak di an neb a ya
%W:'Vez selaouet bepred.
%W:
%W:19.Sed an tour du-hont pell,
%W:Daoulinomp, kristenien,
%W:Ra viot, lec'h santel,
%W:Meulet da virviken.
%W:
%W:20.Klevout a ran breman
%W:O seni ar c'hloc'h bras;
%W:Itron Santez Anna,
%W:M'ho kwelo, eur wech c'hoarz.
K:F
A |"Diskan"A2G A2B |c3- cz B|A2c (cB)A |G3- Gz A|F2F GFG |A3- Az F |
w:I-|tron San-tez An-|na,_Ni|ho ped gant*jo-|a_Mi-|rit tud an*Ar-|vor_War|
(GA)B (AG)A |F3 ||z2C |"Kan"F2F (GF)G |A3- Az F|(GA)B (AG)A |
w:zou-*ar ha*war|vor|1.Mamm|zan-tel a*Va-|ri,_Sa-|lud*a greiz*ka-|
F3- Fz C |F2F (GF)G |A3- Az F |(GA)B (AG)A |F3- F2z||
w:lon!_E-|nor ha meu-*leu-|di_D'hor|mamm*ha d'hon*i-|tron_|
